source/assets/images/icons/telegram.svg

<svg fill="none" height="50" viewBox="0 0 50 50" width="50" xmlns="http://www.w3.org/2000/svg" xmlns:xlink="http://www.w3.org/1999/xlink"><clipPath id="a"><path d="m0 0h50v50h-50z"/></clipPath><g clip-path="url(#a)"><path d="m.864587 23.325 12.227113 6.0937c.4729.2334 1.0312.2167 1.4833-.0479l10.8833-6.3271-6.5875 5.8375c-.3354.298-.527.723-.527 1.1709v14.2187c0 1.5 1.9145 2.1313 2.8125.9396l5.2854-7.0271 13.0708 7.4438c.9167.5271 2.0917-.0021 2.3042-1.05l8.1521-40.62503c.2437-1.22083-.9709-2.21666-2.1-1.7625l-46.875046 18.28123c-1.258334.4917-1.339584 2.2521-.129167 2.8542zm45.479213-17.18543-7.1646 35.70213-12.3854-7.0542c-.675-.3854-1.5438-.2146-2.023.4187l-3.302 4.3896v-8.8416l17.8145-15.7834c1.4105-1.2479-.2104-3.4666-1.8208-2.5208l-23.7292 13.7958-8.31663-4.1437z" fill="#000"/></g></svg>

<svg width="50" height="50" viewBox="0 0 50 50" fill="none" xmlns="http://www.w3.org/2000/svg">
<g clip-path="url(#clip0)">
<path d="M0.864587 23.325L13.0917 29.4187C13.5646 29.6521 14.1229 29.6354 14.575 29.3708L25.4583 23.0437L18.8708 28.8812C18.5354 29.1792 18.3438 29.6042 18.3438 30.0521V44.2708C18.3438 45.7708 20.2583 46.4021 21.1563 45.2104L26.4417 38.1833L39.5125 45.6271C40.4292 46.1542 41.6042 45.625 41.8167 44.5771L49.9688 3.95207C50.2125 2.73124 48.9979 1.73541 47.8688 2.18957L0.993754 20.4708C-0.26458 20.9625 -0.34583 22.7229 0.864587 23.325ZM46.3438 6.13957L39.1792 41.8417L26.7938 34.7875C26.1188 34.4021 25.25 34.5729 24.7708 35.2062L21.4688 39.5958V30.7542L39.2833 14.9708C40.6938 13.7229 39.0729 11.5042 37.4625 12.45L13.7333 26.2458L5.41667 22.1021L46.3438 6.13957Z" fill="black"/>
</g>
<defs>
<clipPath id="clip0">
<rect width="50" height="50" fill="white"/>
</clipPath>
</defs>
</svg>
